X:261
T:Quick March (The Fox)
S:Bruce & Emmett's Drummers and Fifers Guide (1862), p. 26
M:6/8
L:1/8
K:A
%%MIDI program 72
%%MIDI transpose 8
%%MIDI ratio 3 1
E|AcA ECE|Ace f2g|aec BAB|cAF F2E|AcA ECE|
Ace f2g|aec BAB|cAA A2::c|ecA Ace|f2e d2c|def ecA|
GBB B2c|ece fga|fed c2B|cAF Edc|BAG A2:||
